X:1
T:They Tell Me the Story of Jesus Is Old
T:They Tell Me the Story of Jesus Is Old
T:May Whittle Moody
T:Daniel Webster Whittle, 1900
T:Public Domain Courtesy of the Cyber Hymnal™
T:Public Domain Courtesy of the Cyber Hymnal™
C:May Whittle Moody
Z:Public Domain
Z:Courtesy of the Cyber Hymnal™
%%score ( 1 2 ) ( 3 4 )
L:1/8
Q:1/4=90
M:6/8
K:F
V:1 treble 
V:2 treble 
V:3 bass 
V:4 bass 
V:1
 ([FA]/[FA]/) | [FA][CG][CF] [B,D][CE][DF] | C[DF][EG] [FA]2 [=CF]/[^CG]/ | %3
w: 1.~They *|tell me the stor- y of|Je- sus is old, And they|
w: 2.~Yet~the *|stor- y is old, as the|sun- light is old, Though it’s|
w: 3.~For *|what can we tell to the|wear- y of heart, If we|
w: 4.~So~with *|sor- row we turn from the|wise of this world, To the|
 [DA][DG][DF] D[DF][DA] | [Ec]3- [Ec]2 ([DB]/[DB]/) | [DB][DA][DG] DD[CE] | %6
w: ask that we preach some- thing|new; * They *|say that the Babe, and the|
w: new ev- ery morn all the|same; * As~it *|floods all the world with its|
w: preach not sal- va- tion from|sin? * And *|how can we com- fort the|
w: wan- der- ers far from the|fold; * With *|hearts for the mess- age they’ll|
 [CF][CG]>[CF] [FA]2 [_EA]/[E=B]/ | [Ec][EG][CE] [=B,G][B,D][B,E] | C3- =C2 || %9
w: Man of the cross, For the|wise of this world will not|do. *|
w: glad- ness and light, Kind- ling|far- a- way stars by its|flame. *|
w: souls that de- part, If we|tell not how Christ rose a-|gain? *|
w: join in our song, That the|stor- y can ne- ver grow|old. *|
"^Refrain" [Ec]/[Ec]/ | [Ec]<[EG][FA] [GB]2 [EB]/[EB]/ | [FB]<F[FG] [FA]2 [FA]/[FA]/ | %12
w: |||
w: It can|ne- ver grow old, it can|ne- ver grow old, Though a|
w: |||
w: |||
 [EA][^CE][DF] [EG][DF][CE] | [DF][FA][F=B] [Ec]2 [Ec] | [Fc][Fd]>[Fc] [FA][FA][_EF] | %15
w: |||
w: mill- ion times o- ver the|stor- y is told; While|sin lives un- van- quished, and|
w: |||
w: |||
 [DF][DB]>[Fc] [Fd]2 [Fd] | [Fd]>[Fe][Fd] [Fc]"^riten."[FA][CF] | [EG]<!fermata![DA][CG] [CF]6 |] %18
w: |||
w: death rules the world, The|stor- y of Je- sus can|ne- ver grow old.|
w: |||
w: |||
V:2
 x | x6 | ^C x5 | x3 D x2 | x6 | x3 DD x | x6 | x6 | C3 =C2 || x | x6 | x/ F3/2 x4 | x6 | x6 | x6 | %15
 x6 | x6 | x9 |] %18
V:3
 ([F,C]/[F,C]/) | [F,C][F,B,][F,A,] [F,B,][F,B,][F,B,] | [F,A,][F,B,][C,C] [F,C]2 [F,A,]/[E,A,]/ | %3
 [D,F,][D,B,][D,A,] [D,F,][D,A,][D,F,] | [C,G,]3- [C,G,]2 ([G,B,]/[G,B,]/) | %5
 [G,B,][^F,C][G,B,] [B,,G,][B,,G,][C,B,] | [F,A,][F,B,]>[F,A,] [F,C]2 [^F,C]/[F,C]/ | %7
 [G,C][G,C]G, [G,,F,][G,,F,][G,,F,] | [C,E,]3- [C,E,]2 || [C,G,]/[C,G,]/ | %10
 [C,G,]<[C,C][C,C] [C,C]2 [C,C]/[C,C]/ | [F,D]<[F,D][F,_D] [F,C]2 [F,C]/[F,C]/ | %12
 [E,^C][E,A,][D,A,] [^C,A,][D,A,][A,,A,] | [D,A,][D,D][G,D] [C,C]2 [C,B,] | %14
 [F,A,][F,B,]>[F,A,] [F,C][F,C][F,A,] | [B,,B,][B,,F,]>[F,A,] [B,,B,]2 [B,,B,] | %16
 [=B,,G,]>[B,,G,][B,,^G,] [C,A,][C,C][C,A,] | [C,B,]<!fermata![C,C][C,B,] [F,,A,]6 |] %18
V:4
 x | x6 | x6 | x6 | x6 | x6 | x6 | x2 G, x3 | x5 || x | x6 | x6 | x6 | x6 | x6 | x6 | x6 | x9 |] %18

